X: 41706
T: Valiant, The
R: jig
M: 6/8
K: Gmajor
A|"G" B2B BAG|"D" B2A ABA|"Em" G2G GAG|"G" G2F F2D|
"C" E2E EFG|"D" E2D D2D|"Em" G2G GAB|"D7" B2A A3|
"G" B2B BAG|"D" B2A ABA|"Em" G2G GAG|"G" G2FF2D|
"C" E2E EFG|"Em" BAG FED|"D7" EFG AGF|"G" F2G G2A||
|:"G" d3 e3|"D" dcB AGF|"G" G2G GAB|"D" B2A A3|
"C" dBd ece|"D" dcB AGF|"G" G2G "D7"GAB|1 "G" A2G G2A:|2 "G"A2GG2G||
|:"C" E2E EFG|"D" E2D D2D|"G" G2G GAB|"D" B2A A2D|
"C" E2E EFG|"Em" BAG FED|"D7" EFG AGF|1 "G"F2G G2G:|2 "G"F2GG3||

